X:21190 
T:TEETOTALER'S FANCY (reel), The
B:DMI.0795
Z:Nordberg/Black
N:Single in DMI
R:reel
%Q:1/4=180
M:C|
L:1/8
K:G
F|G2GF GABc|d2ge dBAc|BEED EFGA|BGAF GFED|
G2GF GABc|dBge dBAc|BEED EFGA|BcAF G3 :|
A|Beed e3f|gfaf gfed|Bddc d3e|fgaf gfed|
Beed e3f|gfaf gfed|efed BABd|1 "thru"egaf gedc :|
[2 "final" ecdB G4|]

%%%


%%%

